X: 1
T: Sculley's Reel
T: Scollay's Reel
C: trad.
R: reel
Z: 2020 John Chambers <jc:trillian.mit.edu>
S: https://www.facebook.com/groups/Fiddletuneoftheday/ 2020-22-02
S: https://www.facebook.com/groups/Fiddletuneoftheday/photos/
M: 4/4
L: 1/8
K: Am
E \
| "Am"A2AB cBcd | "C"efed cBcd | "Am"efed cBcA | "G"BcBA "E"^G3E |\
| "Am"A2AB "C"cBcd | "Am"ecAe "Dm"a3g | "Am"e2ef "Em"edcB | "Am"c2A2 A3 :|
|: e \
| "Am"a2a2 e2e2 | a2a2 e3e | "Dm"f2e2 d2cc | "G"BcBA "E"^G3B |\
| "Am"A^GAB "C"cBcd | "Am"ecAe "Dm"a3g | "Am"e2ef "Em"edcB | "Am"c2A2 A3 :|
